X:1
T:Universum (Violin 2)
M:3/4
L:1/8
Q:1/4=100
C:Erik Gustavsson
K:Dm
D |: A,DC2B,2 | A,3B AG | FED2C2 | F6 | z6 | GF ED C2 |
A,4C2 |1 D4-D D :|[2 D6 |: D2E2F2 | D2 D4 | B2A2G2 |FG FE D2 |
z6 | DEF2D2 | A2A2^c2 |1 d6 :|[2 d4-d|]
